TileServer und Tiles/svg/8/8_3.svg

<?xml version='1.0' encoding='UTF-8' standalone='no'?>
<svg viewBox="0 0 497 279" width="497pt" height="279pt" xmlns="http://www.w3.org/2000/svg" xmlns:xlink="http://www.w3.org/1999/xlink">
 <defs overflow="visible" style="stroke:none;">
  <path id="glyph0-4" d="M 0.265625 0 L 1.890625 -7.59375 L 2.765625 -7.59375 L 1.15625 0 Z M 0.265625 0 "/>
  <path id="glyph0-3" d="M 1.9375 0.09375 C 1.507812 0.09375 1.160156 -0.0546875 0.890625 -0.359375 C 0.617188 -0.671875 0.484375 -1.128906 0.484375 -1.734375 C 0.484375 -2.234375 0.546875 -2.707031 0.671875 -3.15625 C 0.804688 -3.601562 0.988281 -4 1.21875 -4.34375 C 1.445312 -4.6875 1.722656 -4.957031 2.046875 -5.15625 C 2.367188 -5.351562 2.722656 -5.453125 3.109375 -5.453125 C 3.460938 -5.453125 3.75 -5.359375 3.96875 -5.171875 C 4.1875 -4.992188 4.347656 -4.78125 4.453125 -4.53125 L 4.515625 -4.53125 L 4.828125 -5.359375 L 5.5 -5.359375 L 4.359375 0 L 3.65625 0 L 3.796875 -0.984375 L 3.75 -0.984375 C 3.519531 -0.691406 3.25 -0.4375 2.9375 -0.21875 C 2.632812 -0.0078125 2.300781 0.09375 1.9375 0.09375 Z M 2.21875 -0.625 C 2.46875 -0.625 2.707031 -0.710938 2.9375 -0.890625 C 3.175781 -1.078125 3.390625 -1.320312 3.578125 -1.625 C 3.773438 -1.9375 3.925781 -2.28125 4.03125 -2.65625 C 4.082031 -2.851562 4.113281 -3.03125 4.125 -3.1875 C 4.144531 -3.351562 4.15625 -3.507812 4.15625 -3.65625 C 4.15625 -3.96875 4.066406 -4.222656 3.890625 -4.421875 C 3.722656 -4.617188 3.492188 -4.71875 3.203125 -4.71875 C 2.941406 -4.71875 2.703125 -4.632812 2.484375 -4.46875 C 2.265625 -4.3125 2.070312 -4.085938 1.90625 -3.796875 C 1.738281 -3.515625 1.609375 -3.191406 1.515625 -2.828125 C 1.421875 -2.472656 1.375 -2.097656 1.375 -1.703125 C 1.375 -1.347656 1.445312 -1.078125 1.59375 -0.890625 C 1.738281 -0.710938 1.945312 -0.625 2.21875 -0.625 Z M 2.21875 -0.625 "/>
  <path id="glyph0-2" d="M 0.28125 0 L 1.421875 -5.359375 L 2.140625 -5.359375 L 2.03125 -4.375 L 2.078125 -4.375 C 2.222656 -4.5625 2.367188 -4.734375 2.515625 -4.890625 C 2.671875 -5.054688 2.84375 -5.191406 3.03125 -5.296875 C 3.226562 -5.398438 3.453125 -5.453125 3.703125 -5.453125 C 3.796875 -5.453125 3.894531 -5.445312 4 -5.4375 C 4.101562 -5.4375 4.203125 -5.421875 4.296875 -5.390625 L 4.09375 -4.59375 C 3.914062 -4.632812 3.75 -4.65625 3.59375 -4.65625 C 3.257812 -4.65625 2.960938 -4.546875 2.703125 -4.328125 C 2.441406 -4.109375 2.222656 -3.828125 2.046875 -3.484375 C 1.878906 -3.148438 1.757812 -2.804688 1.6875 -2.453125 L 1.15625 0 Z M 0.28125 0 "/>
  <path id="glyph0-1" d="M -0.5625 0 L 3.3125 -7.140625 L 4.25 -7.140625 L 5.125 0 L 4.25 0 L 3.984375 -2.21875 L 1.5625 -2.21875 L 0.40625 0 Z M 2 -3.015625 L 3.890625 -3.015625 L 3.734375 -4.515625 C 3.703125 -4.773438 3.675781 -5.054688 3.65625 -5.359375 C 3.632812 -5.660156 3.617188 -5.929688 3.609375 -6.171875 L 3.578125 -6.171875 C 3.472656 -5.921875 3.347656 -5.648438 3.203125 -5.359375 C 3.066406 -5.066406 2.921875 -4.773438 2.765625 -4.484375 Z M 2 -3.015625 "/>
  <path id="glyph0-0" d="M 0.9375 0 L 0.9375 -7.140625 L 5.046875 -7.140625 L 5.046875 0 Z M 1.453125 -0.515625 L 4.546875 -0.515625 L 4.546875 -6.625 L 1.453125 -6.625 Z M 1.453125 -0.515625 "/>
 </defs>
 <image width="497" height="279" xlink:href="svg/8/8_3.jpg"/>
 <g>
  <path style="fill:none;stroke-width:2;stroke-linecap:butt;stroke-linejoin:round;stroke:rgb(100%,100%,100%);stroke-opacity:0.6;stroke-miterlimit:10;" transform=" rotate(  340 187.828 87.8114) " d="M 176.914062 90.8125 L 180.789062 83.671875 L 181.726562 83.671875 L 182.601562 90.8125 L 181.726562 90.8125 L 181.460938 88.59375 L 179.039062 88.59375 L 177.882812 90.8125 Z M 179.476562 87.796875 L 181.367188 87.796875 L 181.210938 86.296875 C 181.179688 86.039062 181.152344 85.757812 181.132812 85.453125 C 181.109375 85.152344 181.09375 84.882812 181.085938 84.640625 L 181.054688 84.640625 C 180.949219 84.890625 180.824219 85.164062 180.679688 85.453125 C 180.542969 85.746094 180.398438 86.039062 180.242188 86.328125 Z M 179.476562 87.796875 "/>
  <path style="fill:none;stroke-width:2;stroke-linecap:butt;stroke-linejoin:round;stroke:rgb(100%,100%,100%);stroke-opacity:0.6;stroke-miterlimit:10;" transform=" rotate(  340 187.828 87.8114) " d="M 183.378906 90.8125 L 184.519531 85.453125 L 185.238281 85.453125 L 185.128906 86.4375 L 185.175781 86.4375 C 185.320312 86.25 185.464844 86.078125 185.613281 85.921875 C 185.769531 85.757812 185.941406 85.621094 186.128906 85.515625 C 186.324219 85.414062 186.550781 85.359375 186.800781 85.359375 C 186.894531 85.359375 186.992188 85.367188 187.097656 85.375 C 187.199219 85.375 187.300781 85.390625 187.394531 85.421875 L 187.191406 86.21875 C 187.011719 86.179688 186.847656 86.15625 186.691406 86.15625 C 186.355469 86.15625 186.058594 86.265625 185.800781 86.484375 C 185.539062 86.703125 185.320312 86.984375 185.144531 87.328125 C 184.976562 87.664062 184.855469 88.007812 184.785156 88.359375 L 184.253906 90.8125 Z M 183.378906 90.8125 "/>
  <path style="fill:none;stroke-width:2;stroke-linecap:butt;stroke-linejoin:round;stroke:rgb(100%,100%,100%);stroke-opacity:0.6;stroke-miterlimit:10;" transform=" rotate(  340 187.828 87.8114) " d="M 188.816406 90.90625 C 188.386719 90.90625 188.039062 90.757812 187.769531 90.453125 C 187.496094 90.140625 187.363281 89.683594 187.363281 89.078125 C 187.363281 88.578125 187.425781 88.105469 187.550781 87.65625 C 187.683594 87.210938 187.867188 86.8125 188.097656 86.46875 C 188.324219 86.125 188.601562 85.855469 188.925781 85.65625 C 189.246094 85.460938 189.601562 85.359375 189.988281 85.359375 C 190.339844 85.359375 190.628906 85.453125 190.847656 85.640625 C 191.066406 85.820312 191.226562 86.03125 191.332031 86.28125 L 191.394531 86.28125 L 191.707031 85.453125 L 192.378906 85.453125 L 191.238281 90.8125 L 190.535156 90.8125 L 190.675781 89.828125 L 190.628906 89.828125 C 190.398438 90.121094 190.128906 90.375 189.816406 90.59375 C 189.511719 90.804688 189.179688 90.90625 188.816406 90.90625 Z M 189.097656 90.1875 C 189.347656 90.1875 189.585938 90.101562 189.816406 89.921875 C 190.054688 89.734375 190.269531 89.492188 190.457031 89.1875 C 190.652344 88.875 190.804688 88.53125 190.910156 88.15625 C 190.960938 87.960938 190.992188 87.78125 191.003906 87.625 C 191.023438 87.460938 191.035156 87.304688 191.035156 87.15625 C 191.035156 86.84375 190.945312 86.589844 190.769531 86.390625 C 190.601562 86.195312 190.371094 86.09375 190.082031 86.09375 C 189.820312 86.09375 189.582031 86.179688 189.363281 86.34375 C 189.144531 86.5 188.949219 86.726562 188.785156 87.015625 C 188.617188 87.296875 188.488281 87.621094 188.394531 87.984375 C 188.300781 88.339844 188.253906 88.714844 188.253906 89.109375 C 188.253906 89.464844 188.324219 89.734375 188.472656 89.921875 C 188.617188 90.101562 188.824219 90.1875 189.097656 90.1875 Z M 189.097656 90.1875 "/>
  <path style="fill:none;stroke-width:2;stroke-linecap:butt;stroke-linejoin:round;stroke:rgb(100%,100%,100%);stroke-opacity:0.6;stroke-miterlimit:10;" transform=" rotate(  340 187.828 87.8114) " d="M 192.824219 90.8125 L 194.449219 83.21875 L 195.324219 83.21875 L 193.714844 90.8125 Z M 192.824219 90.8125 "/>
  <g style="fill:rgb(30.196078%,50.196078%,70.196078%);fill-opacity:1;" transform=" rotate(  340 187.828 87.8114) ">
   <use xlink:href="#glyph0-1" y="90.811422" x="177.478095"/>
   <use xlink:href="#glyph0-2" y="90.811422" x="183.098095"/>
   <use xlink:href="#glyph0-3" y="90.811422" x="186.878095"/>
   <use xlink:href="#glyph0-4" y="90.811422" x="192.558095"/>
  </g>
 </g>
</svg>

<svg xmlns="http://www.w3.org/2000/svg" xmlns:xlink="http://www.w3.org/1999/xlink" viewBox="0 0 497 279"> <defs overflow="visible" style="stroke:none">  <path id="d" d="m.3 0 1.6-7.6h.9L1.2 0Zm0 0"/>  <path id="c" d="M2 0c-.6 0-.9 0-1.2-.3C.6-.7.5-1 .5-1.7c0-.5 0-1 .2-1.5l.5-1.1c.2-.4.5-.7.8-.9a2 2 0 0 1 1.1-.3c.4 0 .6.1.9.3l.5.7.3-.9h.7L4.4 0h-.7l.1-1c-.3.3-.5.6-.9.8-.3.2-.6.2-.9.2Zm.1-.5c.4-.1.6-.2.9-.5l.6-.6a4 4 0 0 0 .4-1 3 3 0 0 0 .1-.7 4 4 0 0 0 0-.4c.1-.3.1-.5-.1-.7-.3-.2-.5-.3-.8-.3-.3 0-.5 0-.7.2a2 2 0 0 0-.6.7l-.4 1-.1 1.1c0 .4 0 .6.2.8.1.2.3.3.6.3Zm.1-.1"/>  <path id="b" d="m.3 0 1.1-5.4h.7v1l.4-.5.5-.4.7-.2H4l.3.2-.2.7h-.5c-.3-.1-.6-.1-.9.2l-.7.9-.3 1L1.2 0Zm0 0"/>  <path id="a" d="m-.6 0 4-7.1h.8L5 0h-.7L4-2.2H1.6L.4 0ZM2-3h1.9l-.2-1.5v-1.7h-.2a14 14 0 0 1-.3.8l-.4 1Zm0 0"/>  <path d="M1 0v-7.1h4V0Zm.4-.5h3.1v-6.1h-3Zm.1 0"/> </defs> <image xlink:href="svg/8/8_3.jpg" width="497" height="279"/> <path d="m177 90.8 3.7-7.1h1.1l.7 7.1h-.8l-.2-2.2H179l-1 2.2Zm2.4-3h2l-.2-1.5v-.8l-.2-.9a14 14 0 0 1-.3.9l-.5.8Zm4 3 1.1-5.3h.7v1l.4-.7.5-.3.7-.1h.6l-.2.8h-.5c-.3 0-.7 0-.9.3l-.7.8-.3 1-.5 2.6Zm5.4.2c-.4 0-.8-.3-1-.6-.3-.4-.4-.7-.4-1.4 0-.4 0-1 .2-1.3 0-.5.3-.9.4-1.2.3-.5.6-.6.9-.8a2 2 0 0 1 1.1-.3c.4 0 .7 0 1 .2l.2.7.6-.8h.6l-1.2 5.3h-.7l.2-1-1 .8c-.2.2-.5.3-.9.3Zm.3-.9c.2.1.5-.1.7-.2l.7-.7a4 4 0 0 0 .4-1 3 3 0 0 0 .1-.6 4 4 0 0 0 0-.4c0-.4 0-.6-.2-.8-.2-.2-.4-.4-.8-.4-.2 0-.4 0-.6.3a2 2 0 0 0-.6.7l-.4 1-.1 1c0 .5 0 .7.2 1 .1.1.3.2.5.2Zm3.7.7 1.6-7.6h1l-1.8 7.6Zm0 0" style="fill:none;stroke-width:2;stroke-linecap:butt;stroke-linejoin:round;stroke:#fff;stroke-opacity:.6;stroke-miterlimit:10" transform=" rotate(  340 187.828 87.8114) "/> <g style="fill:#4d80b3;fill-opacity:1" transform=" rotate(  340 187.828 87.8114) ">  <use xlink:href="#a" x="177.5" y="90.8"/>  <use xlink:href="#b" x="183.1" y="90.8"/>  <use xlink:href="#c" x="186.9" y="90.8"/>  <use xlink:href="#d" x="192.6" y="90.8"/> </g></svg>
